X:1
T:Title
%%score { 1 | 2 }
L:1/8
M:8/4
K:Bb
V:1 treble nm="Grand Piano"
V:2 bass 
V:1
 z4[Q:1/4=164] [Dd]4 | [Dd]6 [DF]2 [DF]4 [DG]4 | [EG]6 [EF]2 [EF]4 [FB]4 | %3
 [Gd]4 [Gc]4 [FB]4 [EA]4 |[M:6/4] [DB]12 |[M:2/4] d4 |[M:8/4] c6 c2 c4 _d4 | d6 d2 d4 [Fd]4 | %8
 [Fc]4 F4 [=EA]4 [EG]4 |[M:4/4] F8 |[M:2/4] c4 |[M:8/4] c6 c2 [Gc]4 [Fd]4 | %12
 [Ee]6 [EG]2 [EG]4 [Ee]4 | [Ae]4 [Ad]4 [Gc]4 [F=B]4 |[M:6/4] [Ec]12 |[M:2/4] c4 | %16
[M:8/4] c6 c2 [Fd]4 [Fc]4 | [Ff]6 [^Fd]2 [Gd]4 [Gd]4 | d4 B4 d4 c4 |[M:4/4] [DB]8 |] %20
V:2
 z4 [B,,F,]4 | [B,,F,]6 [B,,F,]2 [B,,F,]4 [B,,B,]4 | [C,B,]6 [C,A,]2 [C,A,]4 [D,B,]4 | %3
 [E,=B,]4 [E,C]4 [F,D]4 [F,C]4 |[M:6/4] [B,,B,]12 |[M:2/4][K:treble] [B,DF]4 | %6
[M:8/4] [G,B,=E]6 [B,CG]2 [A,CF]4 [G,B,E]4 | [^F,A,D]6 [A,C^F]2 [G,B,G]4[K:bass] [=B,,_A,]4 | %8
 [C,A,]4 [C,A,]4 [C,C]4 [C,B,]4 |[M:4/4] [F,A,]8 |[M:2/4] [F,A,F]4 | %11
[M:8/4] [F,A,F]6 [F,A,F]2 [E,G,]4 [D,=B,]4 | [C,C]6 [C,C]2 [C,C]4 [C,C]4 | %13
 [F,C]4 [F,F]4 [G,E]4 [G,D]4 |[M:6/4] [C,C]12 |[M:2/4][K:treble] [B,EG]4 | %16
[M:8/4] [A,EF]6 [A,EF]2[K:bass] [E,A,]4 [F,A,]4 | [D,B,]6 [D,B,]2 [E,B,]4 [=E,B,]4 | %18
 [F,B,F]4 [F,B,D]4 [F,A,F]4 [F,A,E]4 |[M:4/4] [B,,F,]8 |] %20

